images_sukapura_svg/cmd/lc_bezierclose.svg

<svg viewBox="0 0 24 24" xmlns="http://www.w3.org/2000/svg" xmlns:xlink="http://www.w3.org/1999/xlink"><linearGradient id="a" gradientUnits="userSpaceOnUse" x1="-19.355436" x2="-18.6299" y1="16.707636" y2="1.656788"><stop offset="0" stop-color="#0040dd"/><stop offset="1" stop-color="#0a84ff"/></linearGradient><linearGradient id="b" gradientTransform="matrix(.26458333 0 0 .26458333 101.6 307.58333)" gradientUnits="userSpaceOnUse" x1="18.5" x2="18.5" y1="23" y2="14.5"><stop offset="0" stop-color="#d70015"/><stop offset="1" stop-color="#ff453a"/></linearGradient><linearGradient id="c" gradientUnits="userSpaceOnUse" x1="20" x2="21" xlink:href="#b" y1="21.966103" y2="19"/><linearGradient id="d" gradientUnits="userSpaceOnUse" x1="4.440678" x2="3.898305" xlink:href="#b" y1="21.864407" y2="18.305084"/><linearGradient id="e" gradientUnits="userSpaceOnUse" x1="20" x2="20.169491" xlink:href="#b" y1="6" y2="2.338983"/><linearGradient id="f" gradientUnits="userSpaceOnUse" x1="2" x2="22" xlink:href="#a" y1="12" y2="12"/><linearGradient id="g" gradientUnits="userSpaceOnUse" x1="21" x2="20" xlink:href="#a" y1="21" y2="6"/><path d="m6 20h13v1h-13z" fill="url(#f)"/><path d="m20 6h1v12h-1z" fill="url(#g)"/><path d="m18.640625 3.4335938c-4.924104.2384144-8.6955889 1.7195041-11.2285156 4.3730468-2.513698 2.6333974-3.7669998 6.3506634-3.9824219 10.8339844h1.3007813c.2156157-4.220973 1.3699308-7.603227 3.6074218-9.9472656 2.2549264-2.3623039 5.6680574-3.7173176 10.3027344-3.9550782z" fill="#4b4b4f" fill-rule="evenodd"/><path d="m18 18v4h4v-4zm1 1h2v2h-2z" fill="url(#c)"/><path d="m2 18v4h4v-4zm1 1h2v2h-2z" fill="url(#d)"/><path d="m18 2v4h4v-4zm1 1h2v2h-2z" fill="url(#e)"/></svg>

<?xml version="1.0" encoding="UTF-8" standalone="no"?>
<svg
   xmlns:dc="http://purl.org/dc/elements/1.1/"
   xmlns:cc="http://creativecommons.org/ns#"
   xmlns:rdf="http://www.w3.org/1999/02/22-rdf-syntax-ns#"
   xmlns:svg="http://www.w3.org/2000/svg"
   xmlns="http://www.w3.org/2000/svg"
   xmlns:xlink="http://www.w3.org/1999/xlink"
   xmlns:sodipodi="http://sodipodi.sourceforge.net/DTD/sodipodi-0.dtd"
   xmlns:inkscape="http://www.inkscape.org/namespaces/inkscape"
   viewBox="0 0 24 24"
   version="1.1"
   id="svg16"
   sodipodi:docname="lc_bezierclose.svg"
   inkscape:version="0.92.3 (unknown)">
  <metadata
     id="metadata22">
    <rdf:RDF>
      <cc:Work
         rdf:about="">
        <dc:format>image/svg+xml</dc:format>
        <dc:type
           rdf:resource="http://purl.org/dc/dcmitype/StillImage" />
        <dc:title></dc:title>
      </cc:Work>
    </rdf:RDF>
  </metadata>
  <defs
     id="defs20">
    <linearGradient
       id="g"
       gradientUnits="userSpaceOnUse"
       x1="5"
       x2="5"
       xlink:href="#a"
       y1="5"
       y2="4" />
    <linearGradient
       id="a"
       gradientUnits="userSpaceOnUse"
       x1="-19.355436"
       x2="-18.6299"
       y1="16.707636"
       y2="1.656788">
      <stop
         offset="0"
         stop-color="#0040dd"
         id="stop2" />
      <stop
         offset="1"
         stop-color="#0a84ff"
         id="stop4" />
    </linearGradient>
    <linearGradient
       id="f"
       gradientUnits="userSpaceOnUse"
       x1="4"
       x2="4"
       xlink:href="#a"
       y1="21"
       y2="6" />
    <linearGradient
       id="e"
       gradientUnits="userSpaceOnUse"
       x1="3.4381831"
       x2="3.7056351"
       xlink:href="#b"
       y1="21.722456"
       y2="19.133726" />
    <linearGradient
       id="b"
       gradientTransform="matrix(0.26458333,0,0,0.26458333,101.6,307.58333)"
       gradientUnits="userSpaceOnUse"
       x1="18.5"
       x2="18.5"
       y1="23"
       y2="14.5">
      <stop
         offset="0"
         stop-color="#d70015"
         id="stop7" />
      <stop
         offset="1"
         stop-color="#ff453a"
         id="stop9" />
    </linearGradient>
    <linearGradient
       id="d"
       gradientUnits="userSpaceOnUse"
       x1="19.510092"
       x2="19.489908"
       xlink:href="#b"
       y1="6.0100918"
       y2="3.2056351" />
    <linearGradient
       inkscape:collect="always"
       xlink:href="#b"
       id="linearGradient945"
       gradientUnits="userSpaceOnUse"
       x1="20"
       y1="21.966103"
       x2="21"
       y2="19" />
    <linearGradient
       inkscape:collect="always"
       xlink:href="#b"
       id="linearGradient947"
       gradientUnits="userSpaceOnUse"
       x1="4.4406781"
       y1="21.864407"
       x2="3.8983052"
       y2="18.305084" />
    <linearGradient
       inkscape:collect="always"
       xlink:href="#b"
       id="linearGradient949"
       gradientUnits="userSpaceOnUse"
       x1="20"
       y1="6"
       x2="20.169491"
       y2="2.3389831" />
    <linearGradient
       inkscape:collect="always"
       xlink:href="#a"
       id="linearGradient951"
       gradientUnits="userSpaceOnUse"
       x1="2"
       y1="12"
       x2="22"
       y2="12" />
    <linearGradient
       inkscape:collect="always"
       xlink:href="#a"
       id="linearGradient953"
       gradientUnits="userSpaceOnUse"
       x1="21"
       y1="21"
       x2="20"
       y2="6" />
  </defs>
  <sodipodi:namedview
     pagecolor="#ffffff"
     bordercolor="#666666"
     borderopacity="1"
     objecttolerance="10"
     gridtolerance="10"
     guidetolerance="10"
     inkscape:pageopacity="0"
     inkscape:pageshadow="2"
     inkscape:window-width="1366"
     inkscape:window-height="706"
     id="namedview18"
     showgrid="false"
     inkscape:zoom="13.906433"
     inkscape:cx="0.55093002"
     inkscape:cy="12.685072"
     inkscape:window-x="0"
     inkscape:window-y="0"
     inkscape:window-maximized="1"
     inkscape:current-layer="svg16">
    <inkscape:grid
       type="xygrid"
       id="grid962" />
  </sodipodi:namedview>
  <path
     inkscape:connector-curvature="0"
     style="fill:url(#linearGradient951);fill-opacity:1.0"
     id="path10"
     d="m 6,20 h 13 v 1 H 6 Z" />
  <path
     inkscape:connector-curvature="0"
     style="fill:url(#linearGradient953);fill-opacity:1"
     id="path12"
     d="m 20,6 h 1 v 12 h -1 z" />
  <path
     style="fill:#4b4b4f;fill-opacity:1;fill-rule:evenodd"
     d="M 18.640625,3.4335938 C 13.716521,3.6720082 9.9450361,5.1530979 7.4121094,7.8066406 4.8984114,10.440038 3.6451096,14.157304 3.4296875,18.640625 H 4.7304688 C 4.9460845,14.419652 6.1003996,11.037398 8.3378906,8.6933594 10.592817,6.3310555 14.005948,4.9760418 18.640625,4.7382812 Z"
     id="path2" />
  <path
     inkscape:connector-curvature="0"
     style="fill:url(#linearGradient945);fill-opacity:1"
     id="path4"
     d="m 18,18 v 4 h 4 v -4 z m 1,1 h 2 v 2 h -2 z" />
  <path
     inkscape:connector-curvature="0"
     style="fill:url(#linearGradient947);fill-opacity:1"
     id="path6"
     d="m 2,18 v 4 h 4 v -4 z m 1,1 h 2 v 2 H 3 Z" />
  <path
     inkscape:connector-curvature="0"
     style="fill:url(#linearGradient949);fill-opacity:1"
     id="path8"
     d="m 18,2 v 4 h 4 V 2 Z m 1,1 h 2 v 2 h -2 z" />
</svg>
